X: 1
T: Paddy's Resource (Julia's Version)
S: jasper:jasp.demon.co.uk tradtunes 2011-11-18
M: 6/8
L: 1/8
K: G
D |\
GAG DED | GBd g2 d | g2 B BAG | AEE E2 F |\
GAG DED | GBd e2 d | g2 B BAG | AEG G2 :|
B/A/ | GBd GBd | dcB BAG | GBd efg | dcB BAG |\
GBd gfe | dcB AGF | GAG DED | BGG G2 :|
